X: 40925
T: Trip To Bantry, The
R: jig
M: 6/8
K: Adorian
D|:EAA Bcd|eaf ged|edB c2 A|B2 A GED|
EAA Bcd|eaf g2 e|dBe dBG|1 EAG A2 G:|2 EAG AB/c/d||
e2 a age|dBd g2 a|ged eAA|B2 A GED|
e2 a age|dBd g2 e|dBe dBG|EAG AB/c/d|
e2 a age|dBd g2 a|ged eAA|B2 A GED|
EAA Bcd|eaf g2 e|dg/g/e dBG|EAG A2 G||

